packages/foundations/assets/icons/functional/images/technology/database_28.svg

<svg width="28" height="28" viewBox="0 0 28 28" fill="none" xmlns="http://www.w3.org/2000/svg">
<g clip-path="url(#clip0_187_578)">
<path fill-rule="evenodd" clip-rule="evenodd" d="M23.6244 2.625C25.0224 2.625 26.2419 3.74222 26.2494 5.25V8.75C26.2494 9.42268 25.9964 10.0363 25.5803 10.5008C25.955 10.9181 26.2494 11.5142 26.2494 12.25V15.75C26.2494 16.4227 25.9964 17.0363 25.5803 17.5008C25.955 17.9181 26.2728 18.5646 26.2494 19.25V22.75C26.2494 24.148 25.1243 25.375 23.6244 25.375H4.37439C2.97642 25.375 1.74939 24.2432 1.74939 22.75V19.25C1.74939 18.5777 2.00211 17.9645 2.41772 17.5001C2.04395 17.0826 1.74939 16.4698 1.74939 15.75V12.25C1.74939 11.5777 2.00211 10.9645 2.41772 10.5001C2.04395 10.0826 1.74939 9.46623 1.74939 8.75V5.25C1.74939 3.85203 2.86927 2.625 4.37439 2.625H23.6244ZM4.37439 18.375C3.92566 18.375 3.50528 18.7277 3.49939 19.25V22.75C3.49939 23.1987 3.85981 23.625 4.37439 23.625H23.6244C24.0731 23.625 24.4994 23.2521 24.4994 22.75V19.25C24.4994 18.8013 24.1362 18.375 23.6244 18.375H4.37439ZM6.12439 20.125C6.60764 20.125 6.99939 20.5168 6.99939 21C6.99939 21.4832 6.60764 21.875 6.12439 21.875C5.64114 21.875 5.24939 21.4832 5.24939 21C5.24939 20.5168 5.64114 20.125 6.12439 20.125ZM21.8744 20.125C22.3576 20.125 22.7494 20.5168 22.7494 21C22.7494 21.4487 22.3565 21.875 21.8744 21.875H18.3744C17.8911 21.875 17.4994 21.4832 17.4994 21C17.4994 20.5513 17.8703 20.125 18.3744 20.125H21.8744ZM4.37439 11.375C3.92566 11.375 3.50528 11.7287 3.50528 12.25L3.49939 15.75C3.49939 16.1987 3.87772 16.625 4.37439 16.625H23.6244C24.0731 16.625 24.4994 16.2492 24.4994 15.75V12.25C24.4994 11.8013 24.1551 11.375 23.6244 11.375H4.37439ZM6.12439 13.125C6.60764 13.125 6.99939 13.5168 6.99939 14C6.99939 14.4832 6.60764 14.875 6.12439 14.875C5.64114 14.875 5.24939 14.4832 5.24939 14C5.24939 13.5168 5.64114 13.125 6.12439 13.125ZM21.8744 13.125C22.3576 13.125 22.7494 13.5168 22.7494 14C22.7494 14.4487 22.3941 14.875 21.8744 14.875H18.3744C17.8911 14.875 17.4994 14.4832 17.4994 14C17.4994 13.5513 17.8705 13.125 18.3744 13.125H21.8744ZM4.37439 4.375C3.92566 4.375 3.50528 4.74306 3.49939 5.25V8.75C3.49939 9.19873 3.88193 9.625 4.37439 9.625H23.6244C24.0731 9.625 24.4994 9.2442 24.4994 8.77263V5.25C24.4994 4.80127 24.1361 4.375 23.6244 4.375H4.37439ZM6.12439 6.125C6.60764 6.125 6.99939 6.51675 6.99939 7C6.99939 7.48325 6.60764 7.875 6.12439 7.875C5.64114 7.875 5.24939 7.48325 5.24939 7C5.24939 6.51675 5.64114 6.125 6.12439 6.125ZM21.8744 6.125C22.3576 6.125 22.7494 6.51675 22.7494 7C22.7494 7.44873 22.4116 7.81857 21.9764 7.86911L18.3744 7.875C17.8911 7.875 17.4994 7.48325 17.4994 7C17.4994 6.55127 17.8624 6.125 18.3744 6.125H21.8744Z" fill="#1A1C1F"/>
</g>
<defs>
<clipPath id="clip0_187_578">
<rect width="28" height="28" fill="white"/>
</clipPath>
</defs>
</svg>

<svg xmlns="http://www.w3.org/2000/svg" width="28" height="28" fill="none"><g clip-path="url(#a)"><path fill="#1A1C1F" fill-rule="evenodd" d="M23.624 2.625A2.625 2.625 0 0 1 26.25 5.25v3.5c0 .673-.253 1.286-.669 1.75.375.418.67 1.014.67 1.75v3.5c0 .673-.254 1.286-.67 1.75.375.418.693 1.065.67 1.75v3.5c0 1.398-1.126 2.625-2.626 2.625H4.374c-1.398 0-2.625-1.132-2.625-2.625v-3.5c0-.672.253-1.285.669-1.75a2.64 2.64 0 0 1-.669-1.75v-3.5c0-.672.253-1.286.669-1.75a2.64 2.64 0 0 1-.669-1.75v-3.5a2.62 2.62 0 0 1 2.625-2.625zm-19.25 15.75a.875.875 0 0 0-.875.875v3.5c0 .449.36.875.875.875h19.25a.885.885 0 0 0 .875-.875v-3.5a.88.88 0 0 0-.875-.875zm1.75 1.75a.875.875 0 1 1 0 1.75.875.875 0 0 1 0-1.75m15.75 0c.484 0 .875.392.875.875 0 .449-.392.875-.875.875h-3.5A.875.875 0 0 1 17.5 21c0-.449.371-.875.875-.875zm-17.5-8.75a.867.867 0 0 0-.869.875l-.006 3.5c0 .449.379.875.875.875h19.25a.887.887 0 0 0 .875-.875v-3.5a.866.866 0 0 0-.875-.875zm1.75 1.75a.875.875 0 1 1 0 1.75.875.875 0 0 1 0-1.75m15.75 0a.875.875 0 0 1 0 1.75h-3.5A.875.875 0 0 1 17.5 14c0-.449.372-.875.875-.875zm-17.5-8.75a.886.886 0 0 0-.875.875v3.5c0 .449.383.875.875.875h19.25c.45 0 .875-.38.875-.852V5.25a.88.88 0 0 0-.875-.875zm1.75 1.75a.875.875 0 1 1 0 1.75.875.875 0 0 1 0-1.75m15.75 0a.875.875 0 0 1 .102 1.744l-3.602.006a.875.875 0 1 1 0-1.75z" clip-rule="evenodd"/></g><defs><clipPath id="a"><path fill="#fff" d="M0 0h28v28H0z"/></clipPath></defs></svg>
